X: 591
T: Georgia Boys
B: jims roots
M:4/4
L:1/8
R: barndance
Q: 1/4=100
K:Gmaj
V:1 
GA|:"G"B4 B2 AB | d2B2 BA G2 | B4 d3B | ABAG E2D2|
       B4 B2 AB | d2B2 BA G2 | "D"ABAG E2F2 | [1 "G"G3AG2 GA:|[2 "G"G3AG2 Bd||
  |:"G"g4 gage  | d2B2 BA G2 | g4 gfga | "Em"be-ef e3f|
    "G"gaba g2ge | eged BA G2 | "D"ABAG E2F2 |[1 "G"G3AG2 Bd:|[2 "G"G3AG2 GA||
% abcbook-tune_id 6298c25d8a7b1efb9e6190bf


% abcbook-boost 0
% abcbook-tablature 
% abcbook-transpose 
% abcbook-lastupdated 1654178398192
% abcbook-soundfonts 
% abcbook-repeats 1


